X: 38
M: 4/4
L: 1/8
K: D
z2 | D2FE D2FG | AAdB "a."AGFE | D2FE D2F2 | A,2E2 D2E2 |
|: A2 | d2dA d2dA | dAdA B2A2 | A2ed c2ed | cded cABc |
d2dA d2dA | dAdA B2A2 | GBAG FDED | A,2D2 D2 |]
P: VAR:
"a."AAFE || "b."DE || "c."GBAA |] y8 y8 y8 y8 y8 y8


